!!!OTL: WI I BIN VERWICHA
!!!ARE: Europa, Mitteleuropa, Deutschland; Oesterreich
!!!SCT: B0458
!!!YEM: Copyright 1995, estate of Helmut Schaffrath.
**kern
*ICvox
*Ivox
*M3/4
*k[f#c#]
*D:
{8a
8dd
=1
8dd
8cc#
8cc#
8e
8g
8b
=2
8b
8a
8a
8A}
{8d
8f#
=3
8f#
8e
8f#
8e
8f#
8e
=4
4d
4r}
{8a
8dd
=5
8dd
8cc#
8cc#
8e
8g
8b
=6
8b
8a
8a
8A}
{8d
8f#
=7
8f#
8e
8f#
8e
8f#
8e
=8
4d
4r}
{8f#
8b
=9
8b
8a#
4a#
8f#
8cc#
=10
8cc#
8b
4b}
{8f#
8b
=11
8dd
8cc#
8dd
8cc#
8dd
8cc#
=12
4.b
8b-}
{8a
8dd
=13
8dd
8cc#
8cc#
8e
8g
8b
=14
8b
8a
4a}
{8d
8f#
=15
8f#
8e
8f#
8e
8f#
8e
=16
4d
4r}
==
!!!AGN: Liebes - Lied, Leid, Klage
!!!ONB: ESAC (Essen Associative Code) Database: BOEHME
!!!AMT: simple triple
!!!AIN: vox
!!!EED: Helmut Schaffrath
!!!EEV: 1.0
*-
